!!!COM: Gesualdo, Carlo
!!!CDT:
!!!PTL: Il primo libro de madrigali a cinque voci
!!!PPP: Ferrara
!!!PPR: Baldini
!!!PDT: 1594
!!!PUB-format:
!!!RISM: G 1721
!!!rime: 571
!!!OTL: Se da sì nobil mano
!!!AGN: Madrigal
!!!SCT: Trm0571b
!!!SCA: Trm0571b
!!!original-voices: 5
!!!extant-voices: 5
!!!complete: Y
!!!final: (C)G
**kern	**text	**kern	**text	**kern	**text	**kern	**text	**kern	**text
*part5	*part5	*part4	*part4	*part3	*part3	*part2	*part2	*part1	*part1
*staff5	*staff5	*staff4	*staff4	*staff3	*staff3	*staff2	*staff2	*staff1	*staff1
*I"Basso	*	*I"Tenore	*	*I"Quinto	*	*I"Alto	*	*I"Canto	*
*I'B	*	*I'T	*	*I'V	*	*I'A	*	*I'C	*
*oclefF3	*	*oclefC3	*	*oclefC2	*	*oclefC1	*	*oclefG2	*
*clefF4	*	*clefGv2	*	*clefG2	*	*clefG2	*	*clefG2	*
*k[]	*	*k[]	*	*k[]	*	*k[]	*	*k[]	*
*omet(C)	*	*omet(C)	*	*omet(C)	*	*omet(C)	*	*omet(C)	*
*M4/2	*	*M4/2	*	*M4/2	*	*M4/2	*	*M4/2	*
=1	=1	=1	=1	=1	=1	=1	=1	=1	=1
!!LO:TX:a:t=Prima parte.
0r	.	0r	.	0r	.	4r	.	2dd	Se
.	.	.	.	.	.	2g	Se	.	.
.	.	.	.	.	.	.	.	4dd	da
.	.	.	.	.	.	4g	da	4ee	sì
.	.	.	.	.	.	2a	sì	4cc	no-
.	.	.	.	.	.	.	.	4a	-bil
.	.	.	.	.	.	4g	no-	2b	ma-
.	.	.	.	.	.	4e	-bil	.	.
=2	=2	=2	=2	=2	=2	=2	=2	=2	=2
2r	.	2r	.	4r	.	2f#X	ma-	2a	-no
.	.	.	.	2d	Deb-	.	.	.	.
2G	Deb-	2B	Deb-	.	.	2g	-no	2r	.
.	.	.	.	8B	-bon’	.	.	.	.
.	.	.	.	8B	ve-	.	.	.	.
8E	-bon’	8G	-bon’	4B	-nir	1r	.	1r	.
8E	ve-	8G	ve-	.	.	.	.	.	.
4E	-nir	4G	-nir	4c#X	le	.	.	.	.
4F#X	le	4A	le	2d	fa-	.	.	.	.
[4G	fa-	[4B	fa-	.	.	.	.	.	.
=3	=3	=3	=3	=3	=3	=3	=3	=3	=3
4G]	.	4B]	.	4e	-sce a	1r	.	0r	.
4A	-sce a	4c	-sce a	4.f	le	.	.	.	.
4B-X	le	4.d	le	.	.	.	.	.	.
.	.	.	.	8e	mie	.	.	.	.
4B-i	mie	.	.	2d	pia-	.	.	.	.
.	.	8e	mie	.	.	.	.	.	.
2A	pia-	2f	pia-	.	.	2r	.	.	.
.	.	.	.	8c#XL	.	.	.	.	.
.	.	.	.	8BJ	.	.	.	.	.
2A	-ghe,	2e	-ghe,	2c#X	.	4r	.	.	.
.	.	.	.	.	.	[4a	Deb-	.	.
=4	=4	=4	=4	=4	=4	=4	=4	=4	=4
0r	.	4r	.	2d	-ghe,	4a]	.	4r	.
.	.	4d	Deb-	.	.	8f	-bon’	4ff	Deb-
.	.	.	.	.	.	8f	ve-	.	.
.	.	8B-X	-bon’	2r	.	4f	-nir	8dd	-bon’
.	.	8B-i	ve-	.	.	.	.	8dd	ve-
.	.	4B-i	-nir	.	.	4.g	le	4dd	-nir
.	.	4c	le	1r	.	.	.	4ee	le
.	.	.	.	.	.	4a	fa-	.	.
.	.	4.d	fa-	.	.	.	.	4.ff	fa-
.	.	.	.	.	.	8a	-sce a	.	.
.	.	.	.	.	.	8f	le	.	.
.	.	8d	-sce a	.	.	8d	mie	8ff	-sce a
.	.	8c	le	.	.	[4a	pia-	8ee	le
.	.	8A	mie	.	.	.	.	8cc	mie
=5	=5	=5	=5	=5	=5	=5	=5	=5	=5
2r	.	2B-X	pia-	2r	.	4a]	.	2dd	pia-
.	.	.	.	.	.	4g	.	.	.
4r	.	4A	-ghe,	4r	.	4a	-ghe,	4cc	-ghe,
4E	A-	4e	A-	4g	A-	4cc	A-	4gg	A-
4.G	-mor’,	4.d	-mor’,	4.g	-mor’,	4.b	-mor’,	4.dd	-mor’,
8G	ché	8BnXi	ché	8d	ché	8g	ché	8dd	ché
4G	non	4d	non	4g	non	8b	non	4dd	non
.	.	.	.	.	.	8b	m’im-	.	.
4E	m’im-	4c	m’im-	4g	m’im-	[4cc	-pia-	4ee	m’im-
=6	=6	=6	=6	=6	=6	=6	=6	=6	=6
2D	-pia-	2d	-pia-	2f	-pia-	4cc]	.	2ff	-pia-
.	.	.	.	.	.	4b	.	.	.
4C	-ghe,	4G	-ghe,	4g	-ghe,	4cc	-ghe,	4ee	-ghe,
4c	A-	4e	A-	4g	A-	4cc	A-	4ee	A-
4.G	-mor’,	4.d	-mor’,	4.g	-mor,	4.b	-mor’,	4.gg	-mor’,
8G	ché	8d	ché	8g	ché	8b	ché	8gg	ché
4G	non	4g	non	4d	non	4b	non	4gg	non
4A	m’im-	4c	m’im-	4f	m’im-	8cc	m’im-	[4ff	m’im-
.	.	.	.	.	.	[8a	-pia-	.	.
=7	=7	=7	=7	=7	=7	=7	=7	=7	=7
2B-X	-pia-	4.f	-pia-	2d	-pia-	8a]L	.	4ff]	.
.	.	.	.	.	.	16g	.	.	.
.	.	.	.	.	.	16fJ	.	.	.
.	.	.	.	.	.	4g	.	2dd	-pia-
.	.	16eL	.	.	.	.	.	.	.
.	.	16dJ	.	.	.	.	.	.	.
2A	-ghe	2a	.	4e	-ghe	2a	-ghe	.	.
.	.	.	.	4e	Il	.	.	4cc#X	.
1r	.	2d	-ghe	8f	sen’	4r	.	2dd	-ghe
.	.	.	.	8g	con	.	.	.	.
.	.	.	.	8f	mil-	4a	Il	.	.
.	.	.	.	8d	-le	.	.	.	.
.	.	4r	.	8eL	col-	8cc	sen’	2r	.
.	.	.	.	8f	.	8dd	con	.	.
.	.	4B	Il	8g	.	8b	mil-	.	.
.	.	.	.	16f	.	8g	-le	.	.
.	.	.	.	16eJ	.	.	.	.	.
=8	=8	=8	=8	=8	=8	=8	=8	=8	=8
4r	.	8d	sen’	4f#X	.	4a	col-	4r	.
.	.	8e	con	.	.	.	.	.	.
4G	Il	8d	mil-	4g	-pi,	4b	-pi	4dd	Il
.	.	8B	-le	.	.	.	.	.	.
8c	sen’	4A	col-	4r	.	2r	.	8ee	sen’
8d	con	.	.	.	.	.	.	8ff	con
8c	mil-	8A	-pi,	4a	Il	.	.	8ee	mil-
8A	-le	8e	Il	.	.	.	.	8cc	-le
1G	col-	8g	sen’	8b	sen’	1r	.	4dd	col-
.	.	8a	con	8cc	con	.	.	.	.
.	.	8g	mil-	8b	mil-	.	.	2cc	.
.	.	8e	-le	8g	-le	.	.	.	.
.	.	2d	col-	2g	col-	.	.	.	.
.	.	.	.	.	.	.	.	4b	.
=9	=9	=9	=9	=9	=9	=9	=9	=9	=9
2C	-pi,	4e	-pi	4g	-pi	4r	.	4cc	-pi
.	.	4c	Né	4e	Né	4g	Né	4cc	Né
2r	.	4c	fia	4e	fia	4g	fia	4cc	fia
.	.	4.A	ch’io	4.c	ch’io	4.a	ch’io	4.ee	ch’io
1r	.	.	.	.	.	.	.	.	.
.	.	8E	te-	8c	te-	8g	te-	8ee	te-
.	.	4F	-n’in-	4d	-n’in-	4f	-n’in-	4a	-n’in-
.	.	2G	-col-	2B	-col-	2d	-col-	2dd	-col-
=10	=10	=10	=10	=10	=10	=10	=10	=10	=10
4r	.	4G	-pi,	4B	-pi,	4d	-pi,	4dd	-pi,
4C	Né	4G	Né	4e	Né	4c	Né	4gg	Né
4C	fia	4c	fia	4e	fia	4g	fia	4gg	fia
4.E	ch’io	4.B	ch’io	4.e	ch’io	4.g#X	ch’io	4.ee	ch’io
8E	te-	8B	te-	8e	te-	8g#i	te-	8b	te-
4AA	-n’in-	4A	-n’in-	4e	-n’in-	4a	-n’in-	4cc	-n’in-
2D	-col-	2A	-col-	2d	-col-	2f#X	-col-	2a	-col-
=11	=11	=11	=11	=11	=11	=11	=11	=11	=11
2D	-pi,	2A	-pi,	4d	-pi,	4f#X	-pi,	2a	-pi,
.	.	.	.	4f	Per-	4a	Per-	.	.
2r	.	4r	.	4d	-ché	4fnXi	-ché	4r	.
.	.	4d	Per-	4.f	nul-	4.a	nul-	4ff	Per-
1r	.	4B-X	-ché	.	.	.	.	4dd	-ché
.	.	.	.	8e	-la	8g	-la	.	.
.	.	4.d	nul-	4d	fe-	4f	fe-	4.ff	nul-
.	.	.	.	4e	-ri-	[2g	-ri-	.	.
.	.	8c	-la	.	.	.	.	8ee	-la
.	.	4BnXi	fe-	[4f	.	.	.	4dd	fe-
=12	=12	=12	=12	=12	=12	=12	=12	=12	=12
0r	.	2c	-ri-	4f]	.	2g]	.	2cc	-ri-
.	.	.	.	4e	.	.	.	.	.
.	.	4F	-ta	4f	-ta	4a	-ta	4cc	-ta
.	.	4A	Sa-	4e	Sa-	4a	Sa-	4cc#X	Sa-
.	.	4.d	-reb-	4.f	-reb-	8a	-reb-	4.dd	-reb-
.	.	.	.	.	.	8b-X	-b’al	.	.
.	.	.	.	.	.	2a	cor’	.	.
.	.	8c	-b’al	8e	-b’al	.	.	8ee	-b’al
.	.	4B-X	cor’	8d	cor’	.	.	4ff	cor’
.	.	.	.	8d	sì	.	.	.	.
.	.	4B-i	sì	[4g	gra-	4g	sì	4dd	sì
=13	=13	=13	=13	=13	=13	=13	=13	=13	=13
2r	.	2A	gra-	4g]	.	2a	gra-	2cc	gra-
.	.	.	.	4f#X	.	.	.	.	.
4r	.	4G	-ve,	4g	-ve,	4d	-ve,	2b	-ve
4E	Sa-	4B	Sa-	4e	Sa-	4g	Sa-	.	.
4.A	-reb-	4.c	-reb-	8e	-reb-	4.a	-reb-	1r	.
.	.	.	.	8fnXi	-b’al	.	.	.	.
.	.	.	.	2e	cor’	.	.	.	.
8G	-b’al	8B	-b’al	.	.	8b	-b’al	.	.
4F	cor’	8A	cor’	.	.	4cc	cor’	.	.
.	.	8A	sì	.	.	.	.	.	.
4F	sì	[4d	gra-	4d	sì	4a	sì	.	.
=14	=14	=14	=14	=14	=14	=14	=14	=14	=14
2E	gra-	4d]	.	2e	gra-	2g	gra-	1r	.
.	.	4c#X	.	.	.	.	.	.	.
2D	-ve,	2d	-ve	2A	-ve	2f#X	-ve	.	.
2r	.	2r	.	2r	.	2r	.	2r	.
[2G	Co-	[2d	Co-	[2g	Co-	[2b	Co-	[2dd	Co-
=15	=15	=15	=15	=15	=15	=15	=15	=15	=15
4G]	.	4d]	.	4g]	.	4b]	.	4dd]	.
4G	-me	4B	-me	4e	-me	4g	-me	4gg	-me
2F	fo-	4c	fo-	2f	fo-	2a	fo-	2cc	fo-
.	.	2c	-ra	.	.	.	.	.	.
4F	-ra	.	.	4d	-ra	4a	-ra	4.ff	-ra
4D	so-	4B-X	so-	4f	so-	4b-X	so-	.	.
.	.	.	.	.	.	.	.	8dd	so-
2F	-a-	2c	-a-	2f	-a-	2a	-a-	2cc	-a-
=16	=16	=16	=16	=16	=16	=16	=16	=16	=16
2F	-ve	4c	-ve	4f	-ve	2a	-ve	2cc	-ve
.	.	4f	De	4a	De	.	.	.	.
2r	.	4.f	la	4.a	la	4r	.	4r	.
.	.	.	.	.	.	4a	De	4cc	De
.	.	8g	man	8b	man	.	.	.	.
1r	.	4a	bel-	4cc	bel-	4.a	la	4.cc	la
.	.	4f	-la	4a	-la	.	.	.	.
.	.	.	.	.	.	8b	man	8dd	man
.	.	8e	la	8g	la	[2cc	bel-	[2ee	bel-
.	.	8d	cor-	8f	cor-	.	.	.	.
.	.	8c	-te-	8e	-te-	.	.	.	.
.	.	8B	-s’a-	8d	-s’a-	.	.	.	.
=17	=17	=17	=17	=17	=17	=17	=17	=17	=17
0r	.	4A	-i-	2c	-i-	4cc]	.	4ee]	.
.	.	4F	-ta,	.	.	4a	-la	4ff	-la
.	.	2r	.	2c	-ta,	8g	la	8ee	la
.	.	.	.	.	.	8f	cor-	8dd	cor-
.	.	.	.	.	.	8e	-te-	8cc	-te-
.	.	.	.	.	.	8d	-s’a-	8b	-s’a-
.	.	1r	.	2r	.	8cL	-i-	4a	-i-
.	.	.	.	.	.	16d	.	.	.
.	.	.	.	.	.	16eJ	.	.	.
.	.	.	.	.	.	2f	.	8gL	.
.	.	.	.	.	.	.	.	8fJ	.
.	.	.	.	4r	.	.	.	2g	.
.	.	.	.	4c	De	4e	.	.	.
=18	=18	=18	=18	=18	=18	=18	=18	=18	=18
2F	De	4r	.	4.c	la	1f	-ta,	1a	-ta,
.	.	4A	De	.	.	.	.	.	.
.	.	.	.	8B	man	.	.	.	.
4.F	la	4.A	la	4A	bel-	.	.	.	.
.	.	.	.	4c	-la	.	.	.	.
8E	man	8G	man	.	.	.	.	.	.
4D	bel-	4F	bel-	8B-X	la	1r	.	1r	.
.	.	.	.	8c	cor-	.	.	.	.
4F	-la	4A	-la	8d	-te-	.	.	.	.
.	.	.	.	8e	-s’a-	.	.	.	.
8D	la	8F	la	2f	-i-	.	.	.	.
8E	cor-	8G	cor-	.	.	.	.	.	.
8F	-te-	8A	-te-	.	.	.	.	.	.
8G	-s’a-	8B	-s’a-	.	.	.	.	.	.
=19	=19	=19	=19	=19	=19	=19	=19	=19	=19
8AL	-i-	4c	-i-	4e	-ta,	2r	.	1r	.
8BJ	.	.	.	.	.	.	.	.	.
4c	.	4F	-ta,	4a	De	.	.	.	.
4F	-ta,	4f	De	4.a	la	4r	.	.	.
4A	De	8f	la	.	.	4cc	De	.	.
.	.	8g	man	8b	man	.	.	.	.
4.A	la	4a	bel-	4cc	bel-	4.cc	la	2r	.
.	.	4f	-la	4a	-la	.	.	.	.
8B	man	.	.	.	.	8dd	man	.	.
[2c	bel-	8e	la	8g	la	[2ee	bel-	4r	.
.	.	8d	cor-	8f	cor-	.	.	.	.
.	.	8c	-te-	8e	-te-	.	.	4ee	De
.	.	8B	-s’a-	8d	-s’a-	.	.	.	.
=20	=20	=20	=20	=20	=20	=20	=20	=20	=20
4c]	.	2A	-i-	8cL	-i-	4ee]	.	4.ee	la
.	.	.	.	8d	.	.	.	.	.
4A	-la	.	.	8e	.	4cc	-la	.	.
.	.	.	.	8cJ	.	.	.	8ff	man
8B	la	2G	-ta,	4g	.	8dd	la	4gg	bel-
8A	cor-	.	.	.	.	8cc	cor-	.	.
8G	-te-	.	.	4g	-ta,	8b	-te-	4dd	-la
8F	-s’a-	.	.	.	.	8a	-s’a-	.	.
2.E	-i-	8g	la	8b	la	4g	-i-	2r	.
.	.	8f	cor-	8a	cor-	.	.	.	.
.	.	8e	-te-	8g	-te-	8aL	.	.	.
.	.	8d	-s’a-	8f	-s’a-	8bJ	.	.	.
.	.	2c	-i-	8eL	-i-	[2cc	.	8gg	la
.	.	.	.	8fJ	.	.	.	8ff	cor-
8DL	.	.	.	[4g	.	.	.	8ee	-te-
8CJ	.	.	.	.	.	.	.	8ee	-s’a-
=21	=21	=21	=21	=21	=21	=21	=21	=21	=21
1G	.	4d	-ta,	4g]	.	4cc]	.	1dd	-i-
.	.	4d	a-	8fL	.	8bL	.	.	.
.	.	.	.	8eJ	.	8aJ	.	.	.
.	.	2g	-i-	2d	.	2b	.	.	.
[1C	-ta.	[1g	-ta.	[1c	-ta.	[1cc	-ta.	[1ee	-ta.
=22	=22	=22	=22	=22	=22	=22	=22	=22	=22
0C]	.	0g]	.	0c]	.	0cc]	.	0ee]	.
=||23	=||23	=||23	=||23	=||23	=||23	=||23	=||23	=||23	=||23
!!LO:TX:a:t=Seconda parte.
2G	A-	1r	.	2d	A-	2g	A-	2b	A-
2G	-mor,	.	.	2d	-mor,	2g	-mor,	2b	-mor,
2r	.	2r	.	2r	.	2r	.	2r	.
[2E	pa-	[2B	pa-	[2e	pa-	[2g#X	pa-	[2b	pa-
=24	=24	=24	=24	=24	=24	=24	=24	=24	=24
4E]	.	4B]	.	4e]	.	4g#]	.	4b]	.
4E	-ce	4B	-ce	4e	-ce	4g#i	-ce	4b	-ce
2A	non	2A	non	2e	non	2a	non	2cc	non
2E	che-	2B	che-	2e	che-	2g#X	che-	2b	che-
2E	-ro,	2B	-ro,	2e	-ro,	2g#i	-ro,	4b	-ro,
.	.	.	.	.	.	.	.	4ee	Non
=25	=25	=25	=25	=25	=25	=25	=25	=25	=25
0r	.	1r	.	4r	.	4r	.	4ee	cheg-
.	.	.	.	4cc	Non	4a	Non	4cc	-gi’u-
.	.	.	.	4cc	cheg-	4a	cheg-	4ee	-sber-
.	.	.	.	4a	-gi’u-	4f	-gi’u-	4ff	-g’o
.	.	2r	.	4cc	-sber-	8a	-sber-	4ee	scu-
.	.	.	.	.	.	8b	-g’o	.	.
.	.	.	.	4a	-g’o	2cc	scu-	8ddL	.
.	.	.	.	.	.	.	.	8ccJ	.
.	.	2G	A-	2g	scu-	.	.	2dd	.
.	.	.	.	.	.	4b	.	.	.
=26	=26	=26	=26	=26	=26	=26	=26	=26	=26
2r	.	1.g	-mor,	2c	-do,	2cc	-do,	1ee	-do,
2C	A-	.	.	2e	A-	4r	.	.	.
.	.	.	.	.	.	4cc	A-	.	.
2c	-mor,	.	.	2e	-mor,	2cc	-mor,	2r	.
[2A	pa-	[2a	pa-	[2e	pa-	[2cc#X	pa-	[2ee	pa-
=27	=27	=27	=27	=27	=27	=27	=27	=27	=27
4A]	.	4a]	.	4e]	.	4cc#]	.	4ee]	.
4A	-ce	4a	-ce	4e	-ce	4cc#i	-ce	4ee	-ce
2D	non	2a	non	2d	non	2dd	non	2ff	non
2A	che-	2a	che-	2e	che-	2cc#X	che-	2ee	che-
2A	-ro,	2a	-ro,	4e	-ro,	2cc#i	-ro,	2ee	-ro,
.	.	.	.	4a	Non	.	.	.	.
=28	=28	=28	=28	=28	=28	=28	=28	=28	=28
0r	.	4r	.	4a	cheg-	1r	.	4r	.
.	.	4d	Non	4f	-gi’u-	.	.	4ff	Non
.	.	4d	cheg-	4a	-sber-	.	.	4ff	cheg-
.	.	4B-X	-gi’u-	4b-X	-g’o	.	.	4dd	-gi’u-
.	.	8d	-sber-	2a	scu-	2r	.	4ff	-sber-
.	.	8e	-g’o	.	.	.	.	.	.
.	.	2f	scu-	.	.	.	.	4cc	-g’o
.	.	.	.	2g	-do,	4r	.	2gg	scu-
.	.	4e	.	.	.	4cc	Non	.	.
=29	=29	=29	=29	=29	=29	=29	=29	=29	=29
4r	.	2f	-do,	4r	.	4cc	cheg-	2cc	-do,
4F	Non	.	.	4a	Non	4a	-gi’u-	.	.
4F	cheg-	2r	.	4a	cheg-	4cc	-sber-	2r	.
4D	-gi’u-	.	.	4f	-gi’u-	4b-X	-g’o	.	.
4d	-sber-	4r	.	8f	-sber-	4a	scu-	1r	.
.	.	.	.	8g	-g’o	.	.	.	.
4d	-g’o	4f	o	2a	scu-	2d	-do,	.	.
2B-X	scu-	[2d	scu-	.	.	.	.	.	.
.	.	.	.	4g	.	4d	o	.	.
=30	=30	=30	=30	=30	=30	=30	=30	=30	=30
2.A	-do,	2d]	.	2.a	-do,	2f	scu-	2r	.
.	.	4c#X	-do,	.	.	4e	-do,	4r	.
4A	Ma	4c#i	Ma	4e	Ma	4a	Ma	4ee	Ma
4.D	con-	4.d	con-	4.d	con-	4.a	con-	4.ff	con-
8C	-tr’al	8A	-tr’al	8e	-tr’al	8a	-tr’al	8ee	-tr’al
4D	pet-	4A	pet-	4f	pet-	4a	pet-	4dd	pet-
4F	-t’i-	4A	-t’i-	4f	-t’i-	4a	-t’i-	4cc	-t’i-
=31	=31	=31	=31	=31	=31	=31	=31	=31	=31
2C	-gnu-	2c	-gnu-	2e	-gnu-	2g	-gnu-	2cc	-gnu-
2F	-do,	2c	-do,	4f	-do,	4a	-do,	2cc	-do,
.	.	.	.	4a	S’el-	4cc	S’el-	.	.
2r	.	4r	.	4f	-la	4a	-la	4r	.
.	.	4e	S’el-	2e	Me-	2g	Me-	4gg	S’el-
4r	.	4c	-la	.	.	.	.	4ee	-la
4A	S’el-	[4A	Me-	8f	-di-	8a	-di-	[4cc	Me-
.	.	.	.	8g	-ca	8b	-ca	.	.
=32	=32	=32	=32	=32	=32	=32	=32	=32	=32
4F	-la	4A]	.	1a	fia,	4cc	fia,	4cc]	.
2D	Me-	8B	-di-	.	.	2f	Me-	8dd	-di-
.	.	8c	-ca	.	.	.	.	8ee	-ca
.	.	2d	fia,	.	.	.	.	2ff	fia,
8E	-di-	.	.	.	.	8g	-di-	.	.
8F	-ca	.	.	.	.	8a	-ca	.	.
1G	fia,	4d	sia	4r	.	4b	fia,	4dd	sia
.	.	4B	tu,	4d	sia	4dd	sia	4gg	tu,
.	.	4r	.	4e	tu	4g	tu	4r	.
.	.	4g	sia	4g	guer-	4b	guer-	4dd	sia
=33	=33	=33	=33	=33	=33	=33	=33	=33	=33
4r	.	4c	tu	4g	-rie-	4a	-rie-	4ee	tu
4c	sia	4e	guer-	8e	-ro,	8g	-ro,	4gg	guer-
.	.	.	.	8cc	sia	8cc	sia	.	.
4G	tu,	2d	-rie-	4b	tu	8dd	tu	2gg	-rie-
.	.	.	.	.	.	8b	guer-	.	.
4B-X	guer-	.	.	4g	guer-	2dd	-rie-	.	.
2A	-rie-	2e	-ro,	2a	-rie-	.	.	2ee	-ro,
.	.	.	.	.	.	4cc#X	.	.	.
4d	-ro,	4r	.	4f#X	-ro,	4dd	-ro,	4r	.
4G	Ma	4d	Ma	4g	Ma	4b	Ma	4dd	Ma
=34	=34	=34	=34	=34	=34	=34	=34	=34	=34
4.C	con-	4.c	con-	4.g	con-	4.cc	con-	4.ee	con-
8BB	-tr’al	8d	-tr’al	8d	-tr’al	8g	-tr’al	8dd	-tr’al
4C	pet-	4G	pet-	8e	pet-	4g	pet-	4cc	pet-
.	.	.	.	8e	-t’i-	.	.	.	.
4E	-t’i-	4G	-t’i-	2g	-gnu-	4g	-t’i-	4b	-t’i-
2D	-gnu-	2d	-gnu-	.	.	2a	-gnu-	2dd	-gnu-
.	.	.	.	4f#X	.	.	.	.	.
2G	-do,	2d	-do,	4g	-do,	4b	-do,	2dd	-do,
.	.	.	.	4b	S'el-	4dd	S’el-	.	.
=35	=35	=35	=35	=35	=35	=35	=35	=35	=35
2r	.	4r	.	4g	-la	4b	-la	4r	.
.	.	4e	S’el-	2e	Me-	2g	Me-	4gg	S'el-
4r	.	4c	-la	.	.	.	.	4ee	-la
4A	S’el-	2A	Me-	8f	-di-	8a	-di-	2cc	Me-
.	.	.	.	8g	-ca	8b	-ca	.	.
4F	-la	.	.	1a	fia,	4cc	fia,	.	.
2D	Me-	8B	-di-	.	.	2f	Me-	8dd	-di-
.	.	8c	-ca	.	.	.	.	8ee	-ca
.	.	2d	fia,	.	.	.	.	2ff	fia,
8E	-di-	.	.	.	.	8g	-di-	.	.
8F	-ca	.	.	.	.	8a	-ca	.	.
=36	=36	=36	=36	=36	=36	=36	=36	=36	=36
1G	fia,	4d	sia	4r	.	4b	fia,	4dd	sia
.	.	4B	tu,	4d	sia	4dd	sia	4gg	tu,
.	.	4r	.	4e	tu	4g	tu	4r	.
.	.	4g	sia	4g	guer-	4b	guer-	4dd	sia
4r	.	4c	tu	2e	-rie-	4a	-rie-	4ee	tu
4c	sia	4e	guer-	.	.	8g	-ro,	2gg	guer-
.	.	.	.	.	.	8cc	sia	.	.
4G	tu	2d	-rie-	2g	-ro,	4b	tu	.	.
4B-X	guer-	.	.	.	.	4g	guer-	[4dd	-rie-
=37	=37	=37	=37	=37	=37	=37	=37	=37	=37
2A	-rie-	2e	-ro,	2r	.	2a	-rie-	4dd]	.
.	.	.	.	.	.	.	.	4cc#X	.
2d	-ro,	2r	.	4r	.	2a	-ro,	2dd	-ro,
.	.	.	.	4f	sia	.	.	.	.
1r	.	2r	.	4e	tu	1r	.	4r	.
.	.	.	.	4c	guer-	.	.	4a	sia
.	.	4r	.	2g	-rie-	.	.	4b	tu
.	.	4B	sia	.	.	.	.	4dd	guer-
=38	=38	=38	=38	=38	=38	=38	=38	=38	=38
4r	.	4c	tu	4e	-ro,	4r	.	2g	-rie-
4E	sia	4e	guer-	4c	sia	4g	sia	.	.
4F	tu	2A	-rie-	2.c	tu	4cc	tu	4a	-ro,
4A	guer-	.	.	.	.	4a	guer-	4cc	sia
1D	-rie-	[1dl	-ro.	.	.	8aL	-rie-	4ff	tu
.	.	.	.	.	.	8gJ	.	.	.
.	.	.	.	4B	guer-	2g	.	4dd	guer-
.	.	.	.	2A	-rie-	.	.	2dd	-rie-
.	.	.	.	.	.	4f#X	.	.	.
=39	=39	=39	=39	=39	=39	=39	=39	=39	=39
0Gl	-ro.	0d]	.	0Bl	-ro.	0gl	-ro.	0ddl	-ro.
==	==	==	==	==	==	==	==	==	==
*-	*-	*-	*-	*-	*-	*-	*-	*-	*-
!!!system-decoration: [*]
!!!YEM:	Carlo Gesualdo, “Se da sì nobil mano,” 1594 (Trm0571b; August 2018) Tasso in Music Project (http://www.tassomusic.org) Copyright 2016 Emiliano Ricciardi
!!!RDF**kern: i = editorial accidental
!!!RDF**kern: l = terminal long
!!!ENC: Emiliano Ricciardi
!!!END: 2018
!!!EED: Deutsch, Catherine
!!!EEV: 2018/09/18
!!!YEC: Copyright 2018 Emiliano Ricciardi, All Rights Reserved
!!!ONB: Translated from MusicXML on 2018/09/18 and edited by Craig Stuart Sapp
!!@@BEGIN:	VERSEDATA
!!@SOLERTI:	571
!!@CATALOGNUM:	Trm0571
!!@LAST_MODIFIED: 2020/07/12
!!@TITLE:		Se da sì nobil mano
!!@GENRE:		madrigale
!!@MANUSRC:	A<sub>3</sub>, Amz, E<sub>1</sub>, P<sub>4</sub>, V<sub>10</sub>, V<sub>13/E1</sub>, W
!!@PRINTSRC:	8, 9, 11, 12, 13, 15, 20, 24, 29, 33, 67
!!@@BEGIN:	VERSES
!!@ABOUTIT:	Sopra le fascie che per il suo cauterio gli mandò la signora duchessa Lavinia de la Rovere.
!!@ABOUTEN:	About the bands that for his healing lady Duchess Lavinia de la Rovere sent to him.
!!@EDITOR:	Solerti, Angelo
!!@EDITION_TITLE: Le Rime di Torquato Tasso
!!@EDITION_LOC:	Bologna
!!@EDITION_PUB:	Romagnoli-Dall’Acqua
!!@EDITION_DATE:  1898-1902
!!@EDITION_VOL:	3
!!@EDITION_PAGE:  101
!!@TRANSLATOR:	Emiliano Ricciardi and Amyrose McCue Gill
!!@VERSE:
!!	Se da sì nobil mano
!!	Debbon venir le fascie a le mie piaghe,
!!	Amor, ché non m'impiaghe
!!	Il sen con mille colpi?
!!	Né fia ch'io te n'incolpi,
!!	Perché nulla ferita
!!	Sarebbe al cor sì grave,
!!	Come f&ocirc;ra soave
!!	De la man bella cortese aita.
!!	Amor, pace non chero,
!!	Non cheggio usbergo o scudo,
!!	Ma contra il petto ignudo,
!!	S'ella medica fia, sia tu guerriero.
!!@TVERSE:
!!	If from such a noble hand
!!	Must come bandages for my wounds,
!!	Love, why do you not scourge
!!	My breast with a thousand blows?
!!	Nor would it be that I blame you for that,
!!	Because no injury
!!	Could be to the heart so grave,
!!	As aid would be pleasing [to receive]
!!	From the beautiful gracious hand.
!!	Love, peace I do not demand,
!!	I do not demand shelter or shield,
!!	But against the naked chest,
!!	If she be doctor, be you warrior.
!!@@END:		VERSES
!!@OTHER_CRIT_ED:   None
!!@ATTRIBUTION_ABOUT:	Secure
!!		<br>
!!		Among other sources (see Literary Sources), this poem appears in the authoritative manuscript It. 385, Biblioteca Estense Universitaria, Modena.
!!@DATING:	1578
!!@DEDICATEE:	Della Rovere, Lavinia
!!@DEDICATEE_INFO:	(1521-1601)
!!@COMMENTARY:
!!@@END:		VERSEDATA
!!@@BEGIN:	SETTING
!!@CATALOGNUM:	Trm0571b
!!@RIMETITLE:	Se da sì nobil mano
!!@SOLERTI:	571
!!@COMPOSER:	Gesualdo, Carlo
!!@PRINCEPSTITLE:	Il primo libro de madrigali a cinque voci
!!@PRINCEPSLOC:	Ferrara
!!@NORMLOC:	Ferrara
!!@NORMPUB:	Baldini
!!@NORMPUBSHORT:	Baldini
!!@PRINCEPSPUB:	Baldini
!!@PRINCEPSYEAR:	1594
!!@PRINCEPSRISM:	G 1721
!!@REPRINTS:	G1726, G1727, G1728, G1729, G1730
!!@OVOICES:	5
!!@EXTANTVOICES:	5
!!@PARTBOOKS:	
!!@EXTPARTBOOKS:	
!!@OCLEFS:	G2,C1,C2,C3,F3
!!@OMENSURATION:	C
!!@OKEYSIG:	-
!!@FINAL:	(C)G
!!@TIMPEDITOR:	Deutsch, Catherine
!!@NOTE:		
!!@@END:		SETTING
